fs/swipe_down_20_filled.svg

<svg viewBox="0 0 20 20" fill="none" xmlns="http://www.w3.org/2000/svg" height="1em" width="1em">
  <path d="M14 6C14 7.58156 13.0821 8.94874 11.75 9.59788V8.43698C12.507 7.89239 13 7.00376 13 6C13 4.34315 11.6569 3 10 3C8.34315 3 7 4.34315 7 6C7 7.00376 7.49297 7.89239 8.25 8.43698V9.59788C6.91788 8.94874 6 7.58156 6 6C6 3.79086 7.79086 2 10 2C12.2091 2 14 3.79086 14 6ZM9.46967 17.7803C9.76256 18.0732 10.2374 18.0732 10.5303 17.7803L13.0303 15.2803C13.3232 14.9874 13.3232 14.5125 13.0303 14.2197C12.7374 13.9268 12.2626 13.9268 11.9697 14.2197L10.75 15.4393V5.74998C10.75 5.33577 10.4142 4.99998 10 4.99998C9.58579 4.99998 9.25 5.33577 9.25 5.74998V15.4393L8.03033 14.2197C7.73744 13.9268 7.26256 13.9268 6.96967 14.2197C6.67678 14.5125 6.67678 14.9874 6.96967 15.2803L9.46967 17.7803Z" fill="#212121"/>
</svg>

<svg viewBox="0 0 20 20" fill="none" xmlns="http://www.w3.org/2000/svg" height="1em" width="1em">
  <path d="M14 6a4 4 0 0 1-2.25 3.598V8.437a3 3 0 1 0-3.5 0v1.16A4 4 0 1 1 14 6ZM9.47 17.78a.75.75 0 0 0 1.06 0l2.5-2.5a.75.75 0 1 0-1.06-1.06l-1.22 1.22V5.75a.75.75 0 0 0-1.5 0v9.69l-1.22-1.22a.75.75 0 0 0-1.06 1.06l2.5 2.5Z" fill="#212121"/>
</svg>
